symbols/web/night_sight_auto/materialsymbolsoutlined/night_sight_auto_wght300grad200_20px.svg

<svg xmlns="http://www.w3.org/2000/svg" height="20" width="20"><path d="M9.167 15.688q1.041 0 1.916-.386.875-.385 1.563-1.114-2.625-.292-4.354-2.136-1.73-1.844-1.73-4.51 0-.125.021-.334.021-.208.063-.437-1.104.625-1.719 1.687-.615 1.063-.615 2.375 0 2.021 1.417 3.438 1.417 1.417 3.438 1.417Zm0 1.874q-2.813 0-4.771-1.958-1.958-1.958-1.958-4.771 0-2.729 1.874-4.677 1.876-1.948 4.605-2.031.229 0 .468.021.24.021.427.062-.645.771-1.01 1.657-.364.885-.364 1.677 0 2.02 1.437 3.437 1.437 1.417 3.458 1.417.688 0 1.25-.115.563-.114 1.25-.489-.521 2.479-2.375 4.125-1.854 1.645-4.291 1.645Zm2.208-8.208 2.604-7.792h2.042l2.604 7.792h-1.813l-.437-1.312h-2.75l-.417 1.312Zm2.771-2.812h1.708L15 4.438Z"/></svg>

<svg xmlns="http://www.w3.org/2000/svg" height="20" width="20"><path d="M9.167 15.688Q10.208 15.688 11.083 15.302Q11.958 14.917 12.646 14.188Q10.021 13.896 8.292 12.052Q6.562 10.208 6.562 7.542Q6.562 7.417 6.583 7.208Q6.604 7 6.646 6.771Q5.542 7.396 4.927 8.458Q4.312 9.521 4.312 10.833Q4.312 12.854 5.729 14.271Q7.146 15.688 9.167 15.688ZM9.167 17.562Q6.354 17.562 4.396 15.604Q2.438 13.646 2.438 10.833Q2.438 8.104 4.312 6.156Q6.188 4.208 8.917 4.125Q9.146 4.125 9.385 4.146Q9.625 4.167 9.812 4.208Q9.167 4.979 8.802 5.865Q8.438 6.75 8.438 7.542Q8.438 9.562 9.875 10.979Q11.312 12.396 13.333 12.396Q14.021 12.396 14.583 12.281Q15.146 12.167 15.833 11.792Q15.312 14.271 13.458 15.917Q11.604 17.562 9.167 17.562ZM11.375 9.354 13.979 1.562H16.021L18.625 9.354H16.812L16.375 8.042H13.625L13.208 9.354ZM14.146 6.542H15.854L15 4.438Z"/></svg>
